material/.icons/material/key-arrow-right.svg

<svg xmlns="http://www.w3.org/2000/svg" viewBox="0 0 24 24"><path d="M10.7 6c-.6-1.8-2.3-3-4.2-3C4 3 2 5 2 7.5S4 12 6.5 12c2 0 3.6-1.2 4.2-3H15v3h3V9h4V6H10.7M6.5 9C5.7 9 5 8.3 5 7.5S5.7 6 6.5 6 8 6.7 8 7.5 7.3 9 6.5 9M13 21v-2H8v-2h5v-2l3 3-3 3"/></svg>

<?xml version="1.0" encoding="UTF-8"?><!DOCTYPE svg PUBLIC "-//W3C//DTD SVG 1.1//EN" "http://www.w3.org/Graphics/SVG/1.1/DTD/svg11.dtd"><svg xmlns="http://www.w3.org/2000/svg" xmlns:xlink="http://www.w3.org/1999/xlink" version="1.1" id="mdi-key-arrow-right" width="24" height="24" viewBox="0 0 24 24"><path d="M10.7 6C10.1 4.2 8.4 3 6.5 3C4 3 2 5 2 7.5S4 12 6.5 12C8.5 12 10.1 10.8 10.7 9H15V12H18V9H22V6H10.7M6.5 9C5.7 9 5 8.3 5 7.5S5.7 6 6.5 6 8 6.7 8 7.5 7.3 9 6.5 9M13 21V19H8V17H13V15L16 18L13 21" /></svg>
